Yaru++/emotes/16/face-uncertain.svg

<svg height="16" width="16" xmlns="http://www.w3.org/2000/svg"><g stroke-width="1.142857"><path d="m8 0a8 8 0 1 0 0 16 8 8 0 0 0 0-16zm-2.2857143 4.5714286c.6377143 0 1.1782857.5405714 1.1782857 1.1782857v1.1074286c0 .6377142-.5405714 1.1428571-1.1782857 1.1428571s-1.1428571-.5051429-1.1428571-1.1428571v-1.1074286c0-.6377143.5051428-1.1782857 1.1428571-1.1782857zm4.5714283 0c.637715 0 1.142857.5405714 1.142857 1.1782857v1.1074286c0 .6377142-.505142 1.1428571-1.142857 1.1428571-.637714 0-1.142857-.5051429-1.142857-1.1428571v-1.1074286c0-.6377143.505143-1.1782857 1.142857-1.1782857zm-6.8571426 4.5714285 9.1428576 2.2857139v1.142858l-9.1428576-2.285715z" fill="#eab305"/><path d="m8 0a8 8 0 0 0 -7.9866071 8.3482143 8 8 0 0 1 7.9866071-7.77678573 8 8 0 0 1 7.986607 7.65178573 8 8 0 0 0 -7.986607-8.2232143zm-3.4285714 6.8571429v.5714285c0 .6377143.5051428 1.1428572 1.1428571 1.1428572s1.1785714-.5051429 1.1785714-1.1428572v-.5714285c0 .6377142-.5408571 1.1428571-1.1785714 1.1428571s-1.1428571-.5051429-1.1428571-1.1428571zm4.5714284 0v.5714285c0 .6377143.505143 1.1428572 1.142857 1.1428572.637715 0 1.142857-.5051429 1.142857-1.1428572v-.5714285c0 .6377142-.505142 1.1428571-1.142857 1.1428571-.637714 0-1.142857-.5051429-1.142857-1.1428571zm-5.7142856 3.4285711v.571429l9.1428576 2.285714v-.571428z" fill="#fff" opacity=".3"/><path d="m5.7142857 4c-.6377143 0-1.1428571.5408571-1.1428571 1.1785714v.5714286c0-.6377143.5051428-1.1785714 1.1428571-1.1785714s1.1785714.5408571 1.1785714 1.1785714v-.5714286c0-.6377143-.5408571-1.1785714-1.1785714-1.1785714zm4.5714283 0c-.637714 0-1.142857.5408571-1.142857 1.1785714v.5714286c0-.6377143.505143-1.1785714 1.142857-1.1785714.637715 0 1.142857.5408571 1.142857 1.1785714v-.5714286c0-.6377143-.505142-1.1785714-1.142857-1.1785714zm5.700893 3.6517857a8 8 0 0 1 -7.986607 7.7767853 8 8 0 0 1 -7.9866071-7.6517853 8 8 0 0 0 7.9866071 8.2232143 8 8 0 0 0 7.986607-8.3482143zm-12.5580356.9196429v.5714285l9.1428576 2.2857139v-.571428z" opacity=".2"/></g></svg>

<?xml version="1.0" encoding="UTF-8" standalone="no"?>
<svg
   xmlns:dc="http://purl.org/dc/elements/1.1/"
   xmlns:cc="http://creativecommons.org/ns#"
   xmlns:rdf="http://www.w3.org/1999/02/22-rdf-syntax-ns#"
   xmlns:svg="http://www.w3.org/2000/svg"
   xmlns="http://www.w3.org/2000/svg"
   xmlns:sodipodi="http://sodipodi.sourceforge.net/DTD/sodipodi-0.dtd"
   xmlns:inkscape="http://www.inkscape.org/namespaces/inkscape"
   width="16"
   height="16"
   version="1.1"
   id="svg4"
   sodipodi:docname="face-uncertain.svg"
   inkscape:version="0.92.4 (5da689c313, 2019-01-14)">
  <metadata
     id="metadata10">
    <rdf:RDF>
      <cc:Work
         rdf:about="">
        <dc:format>image/svg+xml</dc:format>
        <dc:type
           rdf:resource="http://purl.org/dc/dcmitype/StillImage" />
      </cc:Work>
    </rdf:RDF>
  </metadata>
  <defs
     id="defs8" />
  <sodipodi:namedview
     pagecolor="#ffffff"
     bordercolor="#666666"
     borderopacity="1"
     objecttolerance="10"
     gridtolerance="10"
     guidetolerance="10"
     inkscape:pageopacity="0"
     inkscape:pageshadow="2"
     inkscape:window-width="1920"
     inkscape:window-height="1016"
     id="namedview6"
     showgrid="false"
     inkscape:zoom="14.75"
     inkscape:cx="-4.8813559"
     inkscape:cy="8"
     inkscape:window-x="0"
     inkscape:window-y="27"
     inkscape:window-maximized="1"
     inkscape:current-layer="svg4" />
  <path
     d="M 8,0 A 8,8 0 1 0 8,16 8,8 0 0 0 8,0 Z M 5.7142857,4.5714286 C 6.352,4.5714286 6.8925714,5.112 6.8925714,5.7497143 V 6.8571429 C 6.8925714,7.4948571 6.352,8 5.7142857,8 5.0765714,8 4.5714286,7.4948571 4.5714286,6.8571429 V 5.7497143 c 0,-0.6377143 0.5051428,-1.1782857 1.1428571,-1.1782857 z m 4.5714283,0 c 0.637715,0 1.142857,0.5405714 1.142857,1.1782857 V 6.8571429 C 11.428571,7.4948571 10.923429,8 10.285714,8 9.648,8 9.142857,7.4948571 9.142857,6.8571429 V 5.7497143 C 9.142857,5.112 9.648,4.5714286 10.285714,4.5714286 Z M 3.4285714,9.1428571 12.571429,11.428571 v 1.142858 L 3.4285714,10.285714 Z"
     id="path2"
     style="fill:#eab305;fill-opacity:1;stroke-width:1.14285719"
     inkscape:connector-curvature="0" />
  <path
     style="opacity:0.3;fill:#ffffff;fill-opacity:1;stroke-width:1.14285719"
     d="M 8,0 A 8,8 0 0 0 0.0133929,8.3482143 8,8 0 0 1 8,0.57142857 8,8 0 0 1 15.986607,8.2232143 8,8 0 0 0 8,0 Z M 4.5714286,6.8571429 v 0.5714285 c 0,0.6377143 0.5051428,1.1428572 1.1428571,1.1428572 0.6377143,0 1.1785714,-0.5051429 1.1785714,-1.1428572 V 6.8571429 C 6.8928571,7.4948571 6.352,8 5.7142857,8 5.0765714,8 4.5714286,7.4948571 4.5714286,6.8571429 Z m 4.5714284,0 v 0.5714285 c 0,0.6377143 0.505143,1.1428572 1.142857,1.1428572 0.637715,0 1.142857,-0.5051429 1.142857,-1.1428572 V 6.8571429 C 11.428571,7.4948571 10.923429,8 10.285714,8 9.648,8 9.142857,7.4948571 9.142857,6.8571429 Z M 3.4285714,10.285714 v 0.571429 l 9.1428576,2.285714 v -0.571428 z"
     id="path829"
     inkscape:connector-curvature="0" />
  <path
     style="opacity:0.2;fill:#000000;fill-opacity:1;stroke-width:1.14285719"
     d="M 5.7142857,4 C 5.0765714,4 4.5714286,4.5408571 4.5714286,5.1785714 V 5.75 c 0,-0.6377143 0.5051428,-1.1785714 1.1428571,-1.1785714 0.6377143,0 1.1785714,0.5408571 1.1785714,1.1785714 V 5.1785714 C 6.8928571,4.5408571 6.352,4 5.7142857,4 Z M 10.285714,4 C 9.648,4 9.142857,4.5408571 9.142857,5.1785714 V 5.75 c 0,-0.6377143 0.505143,-1.1785714 1.142857,-1.1785714 0.637715,0 1.142857,0.5408571 1.142857,1.1785714 V 5.1785714 C 11.428571,4.5408571 10.923429,4 10.285714,4 Z m 5.700893,3.6517857 A 8,8 0 0 1 8,15.428571 8,8 0 0 1 0.0133929,7.7767857 8,8 0 0 0 8,16 8,8 0 0 0 15.986607,7.6517857 Z M 3.4285714,8.5714286 v 0.5714285 l 9.1428576,2.2857139 v -0.571428 z"
     id="path834"
     inkscape:connector-curvature="0" />
</svg>
